X:75
T:Bridge of Bamore
R:Reel
B:The Athole Collection
M:C|
L:1/8
K:A
A,2 e>f edcA|BF F/F/F GEEF|A2 ef edcA|BABc A/A/A A2:|
||g|aece aecA|BF F/F/F GEEg|aece aecA|BABc A/A/A Ag|
aece aecA|BF F/F/F GEEF|A,2 ef edcA|BABc A/A/A A|]

